X: 2
T:Ferry, the
M:6/8
L:1/8
S:AABB
R:Jig
O:J S Kerr
B:RSCDS Book 20
K:A
B||:cBc Ace|f3 efg|a2 c cBA|cBB Bed|!
cBc Ace|f3 efg|a2 c BAB|1A3 z3:||2A3 zed|!
||:cea aga|fdf agf|e2 c cBA|cBB Bed|!
cBc Ace|f3 efg|a2 c BAB|A3-A2 z:||
% <A name="D1X003">
